X: 23075
T: Laughing And Smiling
R: waltz
M: 3/4
K: Gmajor
DGA|:B3d (3BAG|A3A (3Bc^c|d2G3F|E3 FGE|
[1 DGG3D|EGG3B|A3BGF|D3 DGA:|
[2 DGB dBG|EGc dec|deB2A2|G3||
ggf|e3def|g2d4|edc dec|d3ggf|
e3def|g2d4|cdB2AG|A3ggf|
e3def|g2d2(3bag|a2d4|b6|
a2 gf ed|g2d3B|cd B2A2|G3||

